X: 100384
M: C|
L: 1/16
K: Bb
uB2 !segno!|\
cG3 c3d cG3 c3d | (.e3.c) (ed).c.B Ac3 c3d !segno!:|
(.B3.f)(d3f) (.B3.f)(d3b) | ge3 c3B AF3 e3c |\
(.B3.f)(d3f) (.B3.f)(d3b) | (ag).f.=e (f3c) dB3 B3c |
dB3f3d (._a3.f)(g3f) | eG3e3d c3B AF3 |\


